X: 14
T:Slopes of Sliabh Luachra
M:6/8
L:1/8
C:Traditional, arr. Roger Landes
R:Jig
K:ADor
{B,}A,A,A, {B,}A,G,E,|E,D,E, G,G,A,|{B,}A,A,A, {B,}A,G,E,|A,B,D EFG|{B,}
A,A,A, {B,}A,G,E,|E,D,E, G,A,B,|CB,A, B,A,G,|1{B,}A,A,A, A,2 G,:|2{B,}A,
A,A, A,2 D||E2 A AGA|ABA {B}AGA|E2 G GFG|GAG GED|E2 A AGA|ABA {B}AGA|EFG
 EDB,|1{C}B,A,G, A,2 D:|2{C}B,A,G, A,2 G,||
